src/images/logo.svg

<svg width="118" height="45" viewBox="0 0 118 45" fill="none" xmlns="http://www.w3.org/2000/svg">
<path d="M2 28V2H24.4516V5.71429H28.1935V16.8571H24.4516V20.5714H9.48387V28H2ZM9.48387 16.8571H20.7097V5.71429H9.48387V16.8571ZM35.6774 28V24.2857H43.1613V5.71429H35.6774V2H58.129V5.71429H50.6452V24.2857H58.129V28H35.6774ZM65.6129 28V24.2857H61.871V20.5714H69.3548V24.2857H80.5806V16.8571H65.6129V13.1429H61.871V5.71429H65.6129V2H84.3226V5.71429H88.0645V9.42857H80.5806V5.71429H69.3548V13.1429H84.3226V16.8571H88.0645V24.2857H84.3226V28H65.6129ZM91.8065 28V2H114.258V5.71429H118V16.8571H114.258V20.5714H99.2903V28H91.8065ZM99.2903 16.8571H110.516V5.71429H99.2903V16.8571Z" fill="#E31CB8"/>
<path d="M0 26V0H22.4516V3.71429H26.1935V14.8571H22.4516V18.5714H7.48387V26H0ZM7.48387 14.8571H18.7097V3.71429H7.48387V14.8571ZM33.6774 26V22.2857H41.1613V3.71429H33.6774V0H56.129V3.71429H48.6452V22.2857H56.129V26H33.6774ZM63.6129 26V22.2857H59.871V18.5714H67.3548V22.2857H78.5806V14.8571H63.6129V11.1429H59.871V3.71429H63.6129V0H82.3226V3.71429H86.0645V7.42857H78.5806V3.71429H67.3548V11.1429H82.3226V14.8571H86.0645V22.2857H82.3226V26H63.6129ZM89.8065 26V0H112.258V3.71429H116V14.8571H112.258V18.5714H97.2903V26H89.8065ZM97.2903 14.8571H108.516V3.71429H97.2903V14.8571Z" fill="#FFE600"/>
<path d="M1.49367 43.5V42H0V33H2.98734V36H8.96203V37.5H10.4557V42H8.96203V43.5H1.49367ZM2.98734 42H7.46835V37.5H2.98734V42Z" fill="#E31CB8"/>
<path d="M13.443 45V43.5H19.4177V42H13.443V40.5H11.9494V36H14.9367V40.5H19.4177V36H22.4051V43.5H20.9114V45H13.443Z" fill="#E31CB8"/>
<path d="M38.8354 43.5V42H37.3418V40.5H35.8481V36H37.3418V34.5H38.8354V33H44.8101V34.5H46.3038V36H43.3165V34.5H40.3291V36H38.8354V40.5H40.3291V42H43.3165V40.5H46.3038V42H44.8101V43.5H38.8354Z" fill="#E31CB8"/>
<path d="M52.2785 34.5V33H55.2658V34.5H52.2785ZM49.2911 43.5V42H52.2785V37.5H50.7848V36H55.2658V42H58.2532V43.5H49.2911Z" fill="#E31CB8"/>
<path d="M59.7468 43.5V36H68.7089V37.5H70.2025V43.5H67.2152V37.5H65.7215V43.5H62.7342V37.5H61.2405V43.5H59.7468Z" fill="#E31CB8"/>
<path d="M71.6962 45V36H80.6582V37.5H82.1519V40.5H80.6582V42H74.6835V45H71.6962ZM74.6835 40.5H79.1646V37.5H74.6835V40.5Z" fill="#E31CB8"/>
<path d="M85.1392 43.5V42H88.1266V34.5H86.6329V33H91.1139V42H94.1013V43.5H85.1392Z" fill="#E31CB8"/>
<path d="M97.0886 43.5V42H95.5949V37.5H97.0886V36H104.557V37.5H106.051V40.5H98.5823V42H104.557V43.5H97.0886ZM98.5823 39H103.063V37.5H98.5823V39Z" fill="#E31CB8"/>
<path d="M109.038 43.5V42H107.544V34.5H109.038V33H116.506V34.5H118V42H116.506V43.5H109.038ZM110.532 42H115.013V34.5H110.532V42Z" fill="#E31CB8"/>
</svg>

<svg width="118" height="45" viewBox="0 0 118 45" fill="none" xmlns="http://www.w3.org/2000/svg"><path d="M2 28V2h22.5v3.7h3.7V17h-3.7v3.7h-15V28H2zm7.5-11.1h11.2V5.7H9.5V17zM35.7 28v-3.7h7.5V5.7h-7.5V2H58v3.7h-7.5v18.6h7.5V28H35.7zm30 0v-3.7h-3.8v-3.7h7.5v3.7h11.2v-7.4h-15V13H62V5.7h3.7V2h18.7v3.7h3.8v3.7h-7.5V5.7H69.4v7.4h15V17H88v7.4h-3.8V28H65.6zm26.1 0V2h22.5v3.7h3.7V17h-3.7v3.7h-15V28h-7.5zm7.5-11.1h11.2V5.7H99.3V17z" fill="#E31CB8"/><path d="M0 26V0h22.5v3.7h3.7V15h-3.7v3.7h-15V26H0zm7.5-11.1h11.2V3.7H7.5V15zM33.7 26v-3.7h7.5V3.7h-7.5V0H56v3.7h-7.5v18.6h7.5V26H33.7zm30 0v-3.7h-3.8v-3.7h7.5v3.7h11.2v-7.4h-15V11H60V3.7h3.7V0h18.7v3.7h3.8v3.7h-7.5V3.7H67.4v7.4h15V15H86v7.4h-3.8V26H63.6zm26.1 0V0h22.5v3.7h3.7V15h-3.7v3.7h-15V26h-7.5zm7.5-11.1h11.2V3.7H97.3V15z" fill="#FFE600"/><path d="M1.5 43.5V42H0v-9h3v3h6v1.5h1.5V42H9v1.5H1.5zM3 42h4.5v-4.5H3V42zM13.4 45v-1.5h6V42h-6v-1.5H12V36h3v4.5h4.5V36h3v7.5H21V45h-7.5zM38.8 43.5V42h-1.5v-1.5h-1.5V36h1.5v-1.5h1.5V33h6v1.5h1.5V36h-3v-1.5h-3V36h-1.5v4.5h1.5V42h3v-1.5h3V42h-1.5v1.5h-6zM52.3 34.5V33h3v1.5h-3zm-3 9V42h3v-4.5h-1.5V36h4.5v6h3v1.5h-9zM59.7 43.5V36h9v1.5h1.5v6h-3v-6h-1.5v6h-3v-6h-1.5v6h-1.5zM71.7 45v-9h9v1.5h1.5v3h-1.5V42h-6v3h-3zm3-4.5h4.5v-3h-4.5v3zM85.1 43.5V42h3v-7.5h-1.5V33h4.5v9h3v1.5h-9zM97 43.5V42h-1.4v-4.5H97V36h7.5v1.5h1.5v3h-7.5V42h6v1.5H97zm1.6-4.5h4.5v-1.5h-4.5V39zM109 43.5V42h-1.5v-7.5h1.5V33h7.5v1.5h1.5V42h-1.5v1.5H109zm1.5-1.5h4.5v-7.5h-4.5V42z" fill="#E31CB8"/></svg>
